static/img/kroki/9184f19f6861d3ea065a372b275fb26b.svg

<?xml version="1.0" encoding="us-ascii" standalone="no"?><svg xmlns="http://www.w3.org/2000/svg" xmlns:xlink="http://www.w3.org/1999/xlink" contentStyleType="text/css" height="793px" preserveAspectRatio="none" style="width:471px;height:793px;" version="1.1" viewBox="0 0 471 793" width="471px" zoomAndPan="magnify"><defs/><g><!--class certificate--><g id="elem_certificate"><rect codeLine="23" fill="#3D176E" height="126.6797" id="certificate" rx="2.5" ry="2.5" style="stroke:#000D19;stroke-width:0.5;" width="199" x="7" y="438.76"/><ellipse cx="55.75" cy="458.6545" fill="#ADD1B2" rx="11" ry="11" style="stroke:#181818;stroke-width:1.0;"/><path d="M58.7188,464.2952 Q58.1406,464.592 57.5,464.7327 Q56.8594,464.8889 56.1563,464.8889 Q53.6563,464.8889 52.3281,463.2483 Q51.0156,461.592 51.0156,458.467 Q51.0156,455.342 52.3281,453.6858 Q53.6563,452.0295 56.1563,452.0295 Q56.8594,452.0295 57.5,452.1858 Q58.1563,452.342 58.7188,452.6389 L58.7188,455.3577 Q58.0938,454.7795 57.5,454.5139 Q56.9063,454.2327 56.2813,454.2327 Q54.9375,454.2327 54.25,455.3108 Q53.5625,456.3733 53.5625,458.467 Q53.5625,460.5608 54.25,461.6389 Q54.9375,462.7014 56.2813,462.7014 Q56.9063,462.7014 57.5,462.4358 Q58.0938,462.1545 58.7188,461.5764 L58.7188,464.2952 Z " fill="#000000"/><text fill="#D9B8FF" font-family="Helvetica" font-size="17" lengthAdjust="spacing" textLength="83" x="81.25" y="464.5398">certificate</text><line style="stroke:#000D19;stroke-width:0.5;" x1="8" x2="205" y1="478.5491" y2="478.5491"/><text fill="#D9B8FF" font-family="sans-serif" font-size="14" font-weight="bold" lengthAdjust="spacing" textLength="88" x="18" y="500.5442">dns_names</text><text fill="#D9B8FF" font-family="sans-serif" font-size="14" lengthAdjust="spacing" textLength="58" x="106" y="500.5442">: string[]</text><text fill="#D9B8FF" font-family="sans-serif" font-size="14" font-weight="bold" lengthAdjust="spacing" textLength="59" x="18" y="526.8411">expires</text><text fill="#D9B8FF" font-family="sans-serif" font-size="14" lengthAdjust="spacing" textLength="70" x="77" y="526.8411">: datetime</text><text fill="#D9B8FF" font-family="sans-serif" font-size="14" font-weight="bold" lengthAdjust="spacing" textLength="129" x="18" y="553.1379">sha1_fingerprint</text><text fill="#D9B8FF" font-family="sans-serif" font-size="14" lengthAdjust="spacing" textLength="48" x="147" y="553.1379">: string</text></g><!--class digitalocean_certificate--><g id="elem_digitalocean_certificate"><rect codeLine="28" fill="#3D176E" height="100.3828" id="digitalocean_certificate" rx="2.5" ry="2.5" style="stroke:#000D19;stroke-width:0.5;" width="235" x="111" y="686.44"/><ellipse cx="126" cy="706.3345" fill="#ADD1B2" rx="11" ry="11" style="stroke:#181818;stroke-width:1.0;"/><path d="M128.9688,711.9752 Q128.3906,712.272 127.75,712.4127 Q127.1094,712.5689 126.4063,712.5689 Q123.9063,712.5689 122.5781,710.9283 Q121.2656,709.272 121.2656,706.147 Q121.2656,703.022 122.5781,701.3658 Q123.9063,699.7095 126.4063,699.7095 Q127.1094,699.7095 127.75,699.8658 Q128.4063,700.022 128.9688,700.3189 L128.9688,703.0377 Q128.3438,702.4595 127.75,702.1939 Q127.1563,701.9127 126.5313,701.9127 Q125.1875,701.9127 124.5,702.9908 Q123.8125,704.0533 123.8125,706.147 Q123.8125,708.2408 124.5,709.3189 Q125.1875,710.3814 126.5313,710.3814 Q127.1563,710.3814 127.75,710.1158 Q128.3438,709.8345 128.9688,709.2564 L128.9688,711.9752 Z " fill="#000000"/><text fill="#D9B8FF" font-family="Helvetica" font-size="17" lengthAdjust="spacing" textLength="193" x="145" y="712.2198">digitalocean_certificate</text><line style="stroke:#000D19;stroke-width:0.5;" x1="112" x2="345" y1="726.2291" y2="726.2291"/><text fill="#D9B8FF" font-family="sans-serif" font-size="14" font-weight="bold" lengthAdjust="spacing" textLength="127" x="122" y="748.2242">certificate_state</text><text fill="#D9B8FF" font-family="sans-serif" font-size="14" lengthAdjust="spacing" textLength="48" x="249" y="748.2242">: string</text><text fill="#D9B8FF" font-family="sans-serif" font-size="14" font-weight="bold" lengthAdjust="spacing" textLength="122" x="122" y="774.5211">certificate_type</text><text fill="#D9B8FF" font-family="sans-serif" font-size="14" lengthAdjust="spacing" textLength="48" x="244" y="774.5211">: string</text></g><!--class digitalocean_resource--><g id="elem_digitalocean_resource"><rect codeLine="32" fill="#3D176E" height="74.0859" id="digitalocean_resource" rx="2.5" ry="2.5" style="stroke:#000D19;stroke-width:0.5;" width="223" x="241" y="465.05"/><ellipse cx="256" cy="484.9445" fill="#ADD1B2" rx="11" ry="11" style="stroke:#181818;stroke-width:1.0;"/><path d="M258.9688,490.5852 Q258.3906,490.882 257.75,491.0227 Q257.1094,491.1789 256.4063,491.1789 Q253.9063,491.1789 252.5781,489.5383 Q251.2656,487.882 251.2656,484.757 Q251.2656,481.632 252.5781,479.9758 Q253.9063,478.3195 256.4063,478.3195 Q257.1094,478.3195 257.75,478.4758 Q258.4063,478.632 258.9688,478.9289 L258.9688,481.6477 Q258.3438,481.0695 257.75,480.8039 Q257.1563,480.5227 256.5313,480.5227 Q255.1875,480.5227 254.5,481.6008 Q253.8125,482.6633 253.8125,484.757 Q253.8125,486.8508 254.5,487.9289 Q255.1875,488.9914 256.5313,488.9914 Q257.1563,488.9914 257.75,488.7258 Q258.3438,488.4445 258.9688,487.8664 L258.9688,490.5852 Z " fill="#000000"/><text fill="#D9B8FF" font-family="Helvetica" font-size="17" lengthAdjust="spacing" textLength="181" x="275" y="490.8298">digitalocean_resource</text><line style="stroke:#000D19;stroke-width:0.5;" x1="242" x2="463" y1="504.8391" y2="504.8391"/><text fill="#D9B8FF" font-family="sans-serif" font-size="14" font-weight="bold" lengthAdjust="spacing" textLength="27" x="252" y="526.8342">urn</text><text fill="#D9B8FF" font-family="sans-serif" font-size="14" lengthAdjust="spacing" textLength="48" x="279" y="526.8342">: string</text></g><!--class resource--><g id="elem_resource"><rect codeLine="35" fill="#3D176E" height="310.7578" id="resource" rx="2.5" ry="2.5" style="stroke:#000D19;stroke-width:0.5;" width="227" x="115" y="7"/><ellipse cx="183.75" cy="26.8945" fill="#ADD1B2" rx="11" ry="11" style="stroke:#181818;stroke-width:1.0;"/><path d="M186.7188,32.5352 Q186.1406,32.832 185.5,32.9727 Q184.8594,33.1289 184.1563,33.1289 Q181.6563,33.1289 180.3281,31.4883 Q179.0156,29.832 179.0156,26.707 Q179.0156,23.582 180.3281,21.9258 Q181.6563,20.2695 184.1563,20.2695 Q184.8594,20.2695 185.5,20.4258 Q186.1563,20.582 186.7188,20.8789 L186.7188,23.5977 Q186.0938,23.0195 185.5,22.7539 Q184.9063,22.4727 184.2813,22.4727 Q182.9375,22.4727 182.25,23.5508 Q181.5625,24.6133 181.5625,26.707 Q181.5625,28.8008 182.25,29.8789 Q182.9375,30.9414 184.2813,30.9414 Q184.9063,30.9414 185.5,30.6758 Q186.0938,30.3945 186.7188,29.8164 L186.7188,32.5352 Z " fill="#000000"/><text fill="#D9B8FF" font-family="Helvetica" font-size="17" lengthAdjust="spacing" textLength="71" x="209.25" y="32.7798">resource</text><line style="stroke:#000D19;stroke-width:0.5;" x1="116" x2="341" y1="46.7891" y2="46.7891"/><text fill="#D9B8FF" font-family="sans-serif" font-size="14" font-weight="bold" lengthAdjust="spacing" textLength="29" x="126" y="68.7842">age</text><text fill="#D9B8FF" font-family="sans-serif" font-size="14" lengthAdjust="spacing" textLength="66" x="155" y="68.7842">: duration</text><text fill="#D9B8FF" font-family="sans-serif" font-size="14" font-weight="bold" lengthAdjust="spacing" textLength="43" x="126" y="95.0811">atime</text><text fill="#D9B8FF" font-family="sans-serif" font-size="14" lengthAdjust="spacing" textLength="70" x="169" y="95.0811">: datetime</text><text fill="#D9B8FF" font-family="sans-serif" font-size="14" font-weight="bold" lengthAdjust="spacing" textLength="43" x="126" y="121.3779">ctime</text><text fill="#D9B8FF" font-family="sans-serif" font-size="14" lengthAdjust="spacing" textLength="70" x="169" y="121.3779">: datetime</text><text fill="#D9B8FF" font-family="sans-serif" font-size="14" font-weight="bold" lengthAdjust="spacing" textLength="14" x="126" y="147.6748">id</text><text fill="#D9B8FF" font-family="sans-serif" font-size="14" lengthAdjust="spacing" textLength="48" x="140" y="147.6748">: string</text><text fill="#D9B8FF" font-family="sans-serif" font-size="14" font-weight="bold" lengthAdjust="spacing" textLength="33" x="126" y="173.9717">kind</text><text fill="#D9B8FF" font-family="sans-serif" font-size="14" lengthAdjust="spacing" textLength="48" x="159" y="173.9717">: string</text><text fill="#D9B8FF" font-family="sans-serif" font-size="14" font-weight="bold" lengthAdjust="spacing" textLength="90" x="126" y="200.2686">last_access</text><text fill="#D9B8FF" font-family="sans-serif" font-size="14" lengthAdjust="spacing" textLength="66" x="216" y="200.2686">: duration</text><text fill="#D9B8FF" font-family="sans-serif" font-size="14" font-weight="bold" lengthAdjust="spacing" textLength="90" x="126" y="226.5654">last_update</text><text fill="#D9B8FF" font-family="sans-serif" font-size="14" lengthAdjust="spacing" textLength="66" x="216" y="226.5654">: duration</text><text fill="#D9B8FF" font-family="sans-serif" font-size="14" font-weight="bold" lengthAdjust="spacing" textLength="48" x="126" y="252.8623">mtime</text><text fill="#D9B8FF" font-family="sans-serif" font-size="14" lengthAdjust="spacing" textLength="70" x="174" y="252.8623">: datetime</text><text fill="#D9B8FF" font-family="sans-serif" font-size="14" font-weight="bold" lengthAdjust="spacing" textLength="43" x="126" y="279.1592">name</text><text fill="#D9B8FF" font-family="sans-serif" font-size="14" lengthAdjust="spacing" textLength="48" x="169" y="279.1592">: string</text><text fill="#D9B8FF" font-family="sans-serif" font-size="14" font-weight="bold" lengthAdjust="spacing" textLength="34" x="126" y="305.4561">tags</text><text fill="#D9B8FF" font-family="sans-serif" font-size="14" lengthAdjust="spacing" textLength="171" x="160" y="305.4561">: dictionary[string, string]</text></g><!--reverse link resource to certificate--><g id="link_resource_certificate"><path codeLine="47" d="M166.5647,334.8394 C151.1947,377.3894 141.49,404.23 129.18,438.32 " fill="none" id="resource-backto-certificate" style="stroke:#FFAF37;stroke-width:2.0;"/><polygon fill="none" points="172.68,317.91,160.9216,332.8009,172.2079,336.8778,172.68,317.91" style="stroke:#FFAF37;stroke-width:2.0;"/></g><!--reverse link certificate to digitalocean_certificate--><g id="link_certificate_digitalocean_certificate"><path codeLine="48" d="M147.7154,581.658 C167.5554,619.458 184.1,651 202.55,686.16 " fill="none" id="certificate-backto-digitalocean_certificate" style="stroke:#FFAF37;stroke-width:2.0;"/><polygon fill="none" points="139.35,565.72,142.4027,584.4465,153.028,578.8696,139.35,565.72" style="stroke:#FFAF37;stroke-width:2.0;"/></g><!--reverse link digitalocean_resource to digitalocean_certificate--><g id="link_digitalocean_resource_digitalocean_certificate"><path codeLine="49" d="M324.6596,555.3125 C303.6096,594.7825 278.33,642.19 254.87,686.17 " fill="none" id="digitalocean_resource-backto-digitalocean_certificate" style="stroke:#FFAF37;stroke-width:2.0;"/><polygon fill="none" points="333.13,539.43,319.3655,552.489,329.9538,558.1359,333.13,539.43" style="stroke:#FFAF37;stroke-width:2.0;"/></g><!--reverse link resource to digitalocean_resource--><g id="link_resource_digitalocean_resource"><path codeLine="50" d="M291.4436,334.8072 C311.4636,389.3372 326.02,428.99 339.09,464.57 " fill="none" id="resource-backto-digitalocean_resource" style="stroke:#FFAF37;stroke-width:2.0;"/><polygon fill="none" points="285.24,317.91,285.8112,336.8751,297.076,332.7393,285.24,317.91" style="stroke:#FFAF37;stroke-width:2.0;"/></g><!--SRC=[XPDFJ-Cm4CNl-HIMk5LKQXT1AUB2Lbej5uHWRmX5KtkSMatiQ3m1khjyTvocWFEdxQLIvltyvZrRNHc50ekIDwB0Oeda4xysjWI2GjmGkTU5ons94wr1dyswuYzd-IXm1mMAtvY_81i9NUBFoiYrHU_5ZqZw2NATaQkiQkoPmFeWeUM8MkJW_GqpcMN568LHy-MbrbsoQtfofgQp2-nXZXJI3fbC9cewxo97Lnti_KKychyefl6btJd6NipUYYrrC6LDH25xHJ_rlHdlGIbZCt4UpHwQJ6IHMlF75IZtMjCQSX-lyOo4ZZSbBdgjS7wfz6mGljq79xA-EY6HsEWGc57yIqOZPNrgGnC_6bq56mfHdfx37DzAGyrK1PPDWM7gLp1DTM2Goe3ozw7aVRT0cSmmv4uYsBIxBVfEFOVVoA2jrbsEkOTyhYBPM5Ta1_WM0jdMKbK4R9oj9tMlJaSvC3Eg5JJSUtiGTd4AKeR_OcV3LgbAjUiQASN0dlebMiOCMUDeP7qCQFFKQASxvZbK_Ifv_Nyy7iTFdCGFqAZxtYSPljeZXmvndrho0G00]--></g></svg>

<svg xmlns="http://www.w3.org/2000/svg" width="471" height="793" viewBox="0 0 471 793"><rect width="199" height="126.68" x="7" y="438.76" fill="#3D176E" rx="2.5" ry="2.5" style="stroke:#000d19;stroke-width:.5"/><circle cx="55.75" cy="458.654" r="11" fill="#ADD1B2" style="stroke:#181818;stroke-width:1"/><path d="M58.719 464.295q-.578.297-1.219.438-.64.156-1.344.156-2.5 0-3.828-1.64-1.312-1.657-1.312-4.782t1.312-4.781q1.328-1.656 3.828-1.656.703 0 1.344.156.656.156 1.219.453v2.719q-.625-.579-1.219-.844-.594-.281-1.219-.281-1.343 0-2.031 1.078-.687 1.062-.687 3.156t.687 3.172q.688 1.062 2.031 1.062.625 0 1.219-.265.594-.281 1.219-.86z"/><text x="81.25" y="464.54" fill="#D9B8FF" font-family="Helvetica" font-size="17" textLength="83">certificate</text><path d="M8 478.549h197" style="stroke:#000d19;stroke-width:.5"/><text x="18" y="500.544" fill="#D9B8FF" font-family="sans-serif" font-size="14" font-weight="bold" textLength="88">dns_names</text><text x="106" y="500.544" fill="#D9B8FF" font-family="sans-serif" font-size="14" textLength="58">: string[]</text><text x="18" y="526.841" fill="#D9B8FF" font-family="sans-serif" font-size="14" font-weight="bold" textLength="59">expires</text><text x="77" y="526.841" fill="#D9B8FF" font-family="sans-serif" font-size="14" textLength="70">: datetime</text><text x="18" y="553.138" fill="#D9B8FF" font-family="sans-serif" font-size="14" font-weight="bold" textLength="129">sha1_fingerprint</text><text x="147" y="553.138" fill="#D9B8FF" font-family="sans-serif" font-size="14" textLength="48">: string</text><rect width="235" height="100.383" x="111" y="686.44" fill="#3D176E" rx="2.5" ry="2.5" style="stroke:#000d19;stroke-width:.5"/><circle cx="126" cy="706.335" r="11" fill="#ADD1B2" style="stroke:#181818;stroke-width:1"/><path d="M128.969 711.975q-.578.297-1.219.438-.64.156-1.344.156-2.5 0-3.828-1.64-1.312-1.657-1.312-4.782t1.312-4.781q1.328-1.656 3.828-1.656.703 0 1.344.156.656.156 1.219.453v2.719q-.625-.578-1.219-.844-.594-.281-1.219-.281-1.344 0-2.031 1.078-.687 1.062-.687 3.156t.687 3.172q.688 1.062 2.031 1.062.625 0 1.219-.265.594-.281 1.219-.86z"/><text x="145" y="712.22" fill="#D9B8FF" font-family="Helvetica" font-size="17" textLength="193">digitalocean_certificate</text><path d="M112 726.229h233" style="stroke:#000d19;stroke-width:.5"/><text x="122" y="748.224" fill="#D9B8FF" font-family="sans-serif" font-size="14" font-weight="bold" textLength="127">certificate_state</text><text x="249" y="748.224" fill="#D9B8FF" font-family="sans-serif" font-size="14" textLength="48">: string</text><text x="122" y="774.521" fill="#D9B8FF" font-family="sans-serif" font-size="14" font-weight="bold" textLength="122">certificate_type</text><text x="244" y="774.521" fill="#D9B8FF" font-family="sans-serif" font-size="14" textLength="48">: string</text><rect width="223" height="74.086" x="241" y="465.05" fill="#3D176E" rx="2.5" ry="2.5" style="stroke:#000d19;stroke-width:.5"/><circle cx="256" cy="484.945" r="11" fill="#ADD1B2" style="stroke:#181818;stroke-width:1"/><path d="M258.969 490.585q-.578.297-1.219.438-.64.156-1.344.156-2.5 0-3.828-1.64-1.312-1.657-1.312-4.782t1.312-4.781q1.328-1.656 3.828-1.656.703 0 1.344.156.656.156 1.219.453v2.719q-.625-.579-1.219-.844-.594-.281-1.219-.281-1.344 0-2.031 1.078-.687 1.062-.687 3.156t.687 3.172q.688 1.062 2.031 1.062.625 0 1.219-.265.594-.281 1.219-.86z"/><text x="275" y="490.83" fill="#D9B8FF" font-family="Helvetica" font-size="17" textLength="181">digitalocean_resource</text><path d="M242 504.839h221" style="stroke:#000d19;stroke-width:.5"/><text x="252" y="526.834" fill="#D9B8FF" font-family="sans-serif" font-size="14" font-weight="bold" textLength="27">urn</text><text x="279" y="526.834" fill="#D9B8FF" font-family="sans-serif" font-size="14" textLength="48">: string</text><rect width="227" height="310.758" x="115" y="7" fill="#3D176E" rx="2.5" ry="2.5" style="stroke:#000d19;stroke-width:.5"/><circle cx="183.75" cy="26.895" r="11" fill="#ADD1B2" style="stroke:#181818;stroke-width:1"/><path d="M186.719 32.535q-.578.297-1.219.438-.64.156-1.344.156-2.5 0-3.828-1.64-1.312-1.657-1.312-4.782t1.312-4.781q1.328-1.656 3.828-1.656.703 0 1.344.156.656.156 1.219.453v2.719q-.625-.578-1.219-.844-.594-.281-1.219-.281-1.344 0-2.031 1.078-.687 1.062-.687 3.156t.687 3.172q.688 1.062 2.031 1.062.625 0 1.219-.265.594-.281 1.219-.86z"/><text x="209.25" y="32.78" fill="#D9B8FF" font-family="Helvetica" font-size="17" textLength="71">resource</text><path d="M116 46.789h225" style="stroke:#000d19;stroke-width:.5"/><text x="126" y="68.784" fill="#D9B8FF" font-family="sans-serif" font-size="14" font-weight="bold" textLength="29">age</text><text x="155" y="68.784" fill="#D9B8FF" font-family="sans-serif" font-size="14" textLength="66">: duration</text><text x="126" y="95.081" fill="#D9B8FF" font-family="sans-serif" font-size="14" font-weight="bold" textLength="43">atime</text><text x="169" y="95.081" fill="#D9B8FF" font-family="sans-serif" font-size="14" textLength="70">: datetime</text><text x="126" y="121.378" fill="#D9B8FF" font-family="sans-serif" font-size="14" font-weight="bold" textLength="43">ctime</text><text x="169" y="121.378" fill="#D9B8FF" font-family="sans-serif" font-size="14" textLength="70">: datetime</text><text x="126" y="147.675" fill="#D9B8FF" font-family="sans-serif" font-size="14" font-weight="bold" textLength="14">id</text><text x="140" y="147.675" fill="#D9B8FF" font-family="sans-serif" font-size="14" textLength="48">: string</text><text x="126" y="173.972" fill="#D9B8FF" font-family="sans-serif" font-size="14" font-weight="bold" textLength="33">kind</text><text x="159" y="173.972" fill="#D9B8FF" font-family="sans-serif" font-size="14" textLength="48">: string</text><text x="126" y="200.269" fill="#D9B8FF" font-family="sans-serif" font-size="14" font-weight="bold" textLength="90">last_access</text><text x="216" y="200.269" fill="#D9B8FF" font-family="sans-serif" font-size="14" textLength="66">: duration</text><text x="126" y="226.565" fill="#D9B8FF" font-family="sans-serif" font-size="14" font-weight="bold" textLength="90">last_update</text><text x="216" y="226.565" fill="#D9B8FF" font-family="sans-serif" font-size="14" textLength="66">: duration</text><text x="126" y="252.862" fill="#D9B8FF" font-family="sans-serif" font-size="14" font-weight="bold" textLength="48">mtime</text><text x="174" y="252.862" fill="#D9B8FF" font-family="sans-serif" font-size="14" textLength="70">: datetime</text><text x="126" y="279.159" fill="#D9B8FF" font-family="sans-serif" font-size="14" font-weight="bold" textLength="43">name</text><text x="169" y="279.159" fill="#D9B8FF" font-family="sans-serif" font-size="14" textLength="48">: string</text><text x="126" y="305.456" fill="#D9B8FF" font-family="sans-serif" font-size="14" font-weight="bold" textLength="34">tags</text><text x="160" y="305.456" fill="#D9B8FF" font-family="sans-serif" font-size="14" textLength="171">: dictionary[string, string]</text><path fill="none" d="M166.565 334.84c-15.37 42.55-25.075 69.39-37.385 103.48m43.5-120.41-11.758 14.89 11.286 4.078z" style="stroke:#ffaf37;stroke-width:2"/><g fill="none"><path d="M147.715 581.658c19.84 37.8 36.385 69.342 54.835 104.502" style="stroke:#ffaf37;stroke-width:2"/><path d="m139.35 565.72 3.053 18.726 10.625-5.576z" style="stroke:#ffaf37;stroke-width:2"/></g><path fill="none" d="M324.66 555.313c-21.05 39.47-46.33 86.877-69.79 130.857m78.26-146.74-13.764 13.059 10.588 5.647zm-41.686-204.623c20.02 54.53 34.576 94.183 47.646 129.763m-53.85-146.66.571 18.965 11.265-4.136z" style="stroke:#ffaf37;stroke-width:2"/></svg>
